X:132
T:Lucy Farr's #1
T:Brady's Set #1
T:Music on the Wind
R:jig
C:Lucy Farr (1911-2003)
H:Originally composed as a slide
Z:id:hn-jig-132
M:6/8
K:Ador
A2G ABc|E2D EFG|~A3 Bcd|egB BAG|A2G ABc|E2D EFG|AGE G2E|D3 D3:|
A2A Bcd|e2f g2e|a2f g2e|d2B BAG|A2A Bcd|e2f g2e|afe def|e3 efg|
a2f g2e|d2d efg|a2f g2e|d2B BAG|A2A Bcd|egB BAG|AGE G2E|D3 D3||

